X:372
T:Till Perla
R:Vals
C:Jonas Brunskog
O:Skåne
M:3/4
L:1/4
K:Am
|:"Am"Acd|e3/2 (d/4e/4d)|cGA-|A z c|"G7"d.fg-|g.fd-|dB"C"c-|c2 z/ G/2:|
|:"Am"AcG|A3/2 (A/4B/4A)|Bcd|dcd|e2 z/2G/2|Ace|"G7"dBG|"Am"A2z:|
(:musicend:)
Till min dotter Perla. Med försök till [[!ackord]].
(:music:)
